sicko-intrigued.svg

<svg height="80" viewBox="0 0 40 60" width="40pt" xmlns="http://www.w3.org/2000/svg"><g fill="#030303"><path d="m20.85 0h1.2c-.58.7-1.75 2.11-2.33 2.81 1.76-.5 3.53-1.01 5.3-1.52.47.95.95 1.9 1.43 2.86.6-.65 1.2-1.3 1.8-1.95 1.25 1.9 3.25 2.3 5.39 2.09.66.43 2 1.28 2.66 1.7-1.21.23-3.63.67-4.84.89 2.46.14 4.85.71 6.7 2.4l1.84 1v.37c-1.15-.01-3.44-.01-4.59-.01 1.13.5 3.37 1.49 4.49 1.99-.63.14-1.91.44-2.54.58-.47.51-1.4 1.52-1.87 2.03l-.18.27c.69.53 1.48.89 2.3 1.18.18.5.55 1.49.73 1.99-.75-.1-2.24-.28-2.99-.38 2.61 10.58 2.09 21.96-1.94 32.11-1.59 4.01-4.47 7.54-8.3 9.59h-9.33c-2.28-1.53-4.8-3.03-6.22-5.47-1.61-3.74-2.02-7.83-2.68-11.81-1.58-.14-3.74.93-4.79-.75-.5-1.93.31-3.91.57-5.83-.9-1.24-1.81-2.48-2.66-3.76v-1.77c1.24-.79 2.52-1.52 3.79-2.26-.56-1.02-1.13-2.05-1.7-3.07.7-1.07 1.39-2.15 2.1-3.22-.74-.12-2.22-.37-2.96-.49 1.22-1 2.44-1.98 3.68-2.96-.88-.64-1.78-1.26-2.7-1.86.8-.03 2.39-.09 3.18-.12-1.97-.46-2.8-1.51-1.68-3.29 1.04-1.57 2.03-3.17 3.05-4.75.98.13 2.94.38 3.92.51-1.08-.69-2.15-1.39-3.22-2.09 1-.01 3-.03 4-.04-.69-1.12-1.37-2.25-2.04-3.38 1.45.67 2.9 1.35 4.35 2.05.16-1.75.32-3.5.51-5.24.45 1.53.9 3.06 1.34 4.59.21-1.54.42-3.09.63-4.64.26.72.77 2.17 1.03 2.89 1.17-1.09 2.35-2.19 3.57-3.24m8.76 12.07c-.57-.53-1.73-1.59-2.3-2.12-.28.5-.82 1.5-1.1 2 2.34-.2 3 1.27 2.96 3.27-.64-.82-1.28-1.65-1.92-2.48-.16.67-.49 2-.65 2.66-.6-1.4-1.23-2.79-1.86-4.18-.61.34-1.84 1.03-2.45 1.37l.56 1.24c-1.58-1.38-3.2-2.72-4.83-4.03-1.63 1.23-3.3 2.47-5.27 3.12-1.47.44-3.64 1.13-1.93 3.36l-1.54-.95c.26.94.79 2.83 1.05 3.77l-2.36-2.42c-.39 1.78-.3 3.62.57 5.25-.32 1.28-.61 2.57-.88 3.87-.32.66-.64 1.32-.97 1.98-.09 1.45-.29 2.89-.53 4.32-.81-.52-2.44-1.57-3.26-2.1-3.03 1.55.71 4.03 1.25 6.02-.24 2.24-1.9 4.62-.12 6.67 1.55-1.67 2.54-3.73 3.6-5.73.3 3.95.84 7.87 1.77 11.73.69 2.68.84 5.88 3.22 7.7 3.41 2.41 7.91 3.29 11.97 2.27 5.08-1.57 7.1-7.06 8.66-11.63 2.81-8.33 2.28-17.19 1.78-25.8-.26-.12-.78-.36-1.04-.48-1.34.52-2.03 1.9-3.01 2.87 3.38 3.52 4.96 10.79-.26 13.42.03.55.09 1.65.12 2.2-1.46-1.43-2.82-3.01-3.36-5.04.77.38 2.3 1.16 3.06 1.54 2.1-1.34 2.28-3.84 2.5-6.08-.31.44-.95 1.3-1.27 1.74-1.55-.65-4.04.26-5.03-1.3 1.94-.7 3.94-1.18 5.88-1.87-.81-1.21-1.65-2.4-2.52-3.57-.65.68-1.95 2.03-2.61 2.71-1.25-1.33-2.48-2.71-2.93-4.54.54.25 1.61.76 2.15 1.01 1.77-1.73 3.4-3.61 5.01-5.5.7.52 1.38 1.06 2.04 1.63.63-2.69-1.1-5.05-2.48-7.17-.31-.7-.93-2.11-1.24-2.81l1.91.46c-.61-.4-1.81-1.19-2.42-1.59.1 1.07.15 2.14.08 3.21m-22.46 2.16c.72.53.72.53 0 0z"/><path d="m14.35 17.82c2.22 1.92 4.23 4.07 6.16 6.28.63-.19 1.91-.57 2.54-.75-.95 1.26-1.98 2.46-3.08 3.6-.93-.81-1.91-1.54-2.95-2.19-2.45.79-2.78 3.78-3.47 5.88 2.19-.48 4.33-1.15 6.46-1.84-.45 1.14-.87 2.29-1.28 3.45-.3-.3-.9-.92-1.2-1.22-1.42.51-2.84 1-4.27 1.49.32 1.09.89 1.99 1.71 2.69 1.86 1.51 3.66-1.02 5.25-1.65-.73 2-1.93 3.76-3.41 5.28-1.26-2.32-4.72-2.97-4.79-5.99-.03-3.51 1.15-7.15 3.93-9.44-1.43-.81-2.82-1.7-4.2-2.61l1.16-.44c.36-.64 1.08-1.9 1.44-2.54z"/><path d="m25.38 26.72c.99 2.82.32 5.85.88 8.73.8 1.1 1.75 2.07 2.66 3.07.07 1.13.14 2.26.2 3.39-3.16 1.94-6.94-.36-8.64-3.19 2.61 1.03 5.02 2.86 7.99 2.44-.85-2.69-3.73-4.46-3.71-7.44-.07-2.35.21-4.69.62-7z"/><path d="m16.92 43.11c1.49 2 3.36 4.12 6.07 4.2 2.47.4 4.44-1.32 6.44-2.43-1.02 1.82-1.76 4.45-4.43 3.64-.01.34-.04 1.04-.05 1.39.63-.34 1.89-1.02 2.52-1.37-.83 3.65-6.34 3.5-9.01 1.91-2.77-1.51-1.5-4.83-1.54-7.34m.9 3.52c-1.39 3.01 3.29.09 0 0m2.27 1.27c-1.27 3.06 3.3-.11 0 0m2.72.48c-1.53 2.91 3.33.22 0 0z"/><path d="m23.46 57.63c-2.83 1.41-6.32-1.25-5.58-4.35 1.02 1.07 1.74 2.51 3.11 3.21 2.36.41 3.72-1.79 5.43-2.96-.76 1.48-1.09 3.59-2.96 4.1z"/></g><path d="m29.61 12.07c.07-1.07.02-2.14-.08-3.21.61.4 1.81 1.19 2.42 1.59l-1.91-.46c.31.7.93 2.11 1.24 2.81 1.38 2.12 3.11 4.48 2.48 7.17-.66-.57-1.34-1.11-2.04-1.63-1.61 1.89-3.24 3.77-5.01 5.5-.54-.25-1.61-.76-2.15-1.01.45 1.83 1.68 3.21 2.93 4.54.66-.68 1.96-2.03 2.61-2.71.87 1.17 1.71 2.36 2.52 3.57-1.94.69-3.94 1.17-5.88 1.87.99 1.56 3.48.65 5.03 1.3.32-.44.96-1.3 1.27-1.74-.22 2.24-.4 4.74-2.5 6.08-.76-.38-2.29-1.16-3.06-1.54.54 2.03 1.9 3.61 3.36 5.04-.03-.55-.09-1.65-.12-2.2 5.22-2.63 3.64-9.9.26-13.42.98-.97 1.67-2.35 3.01-2.87.26.12.78.36 1.04.48.5 8.61 1.03 17.47-1.78 25.8-1.56 4.57-3.58 10.06-8.66 11.63-4.06 1.02-8.56.14-11.97-2.27-2.38-1.82-2.53-5.02-3.22-7.7-.93-3.86-1.47-7.78-1.77-11.73-1.06 2-2.05 4.06-3.6 5.73-1.78-2.05-.12-4.43.12-6.67-.54-1.99-4.28-4.47-1.25-6.02.82.53 2.45 1.58 3.26 2.1.24-1.43.44-2.87.53-4.32.33-.66.65-1.32.97-1.98.27-1.3.56-2.59.88-3.87-.87-1.63-.96-3.47-.57-5.25l2.36 2.42c-.26-.94-.79-2.83-1.05-3.77l1.54.95c-1.71-2.23.46-2.92 1.93-3.36 1.97-.65 3.64-1.89 5.27-3.12 1.63 1.31 3.25 2.65 4.83 4.03l-.56-1.24c.61-.34 1.84-1.03 2.45-1.37.63 1.39 1.26 2.78 1.86 4.18.16-.66.49-1.99.65-2.66.64.83 1.28 1.66 1.92 2.48.04-2-.62-3.47-2.96-3.27.28-.5.82-1.5 1.1-2 .57.53 1.73 1.59 2.3 2.12m-15.26 5.75c-.36.64-1.08 1.9-1.44 2.54l-1.16.44c1.38.91 2.77 1.8 4.2 2.61-2.78 2.29-3.96 5.93-3.93 9.44.07 3.02 3.53 3.67 4.79 5.99 1.48-1.52 2.68-3.28 3.41-5.28-1.59.63-3.39 3.16-5.25 1.65-.82-.7-1.39-1.6-1.71-2.69 1.43-.49 2.85-.98 4.27-1.49.3.3.9.92 1.2 1.22.41-1.16.83-2.31 1.28-3.45-2.13.69-4.27 1.36-6.46 1.84.69-2.1 1.02-5.09 3.47-5.88 1.04.65 2.02 1.38 2.95 2.19 1.1-1.14 2.13-2.34 3.08-3.6-.63.18-1.91.56-2.54.75-1.93-2.21-3.94-4.36-6.16-6.28m11.03 8.9c-.41 2.31-.69 4.65-.62 7-.02 2.98 2.86 4.75 3.71 7.44-2.97.42-5.38-1.41-7.99-2.44 1.7 2.83 5.48 5.13 8.64 3.19-.06-1.13-.13-2.26-.2-3.39-.91-1-1.86-1.97-2.66-3.07-.56-2.88.11-5.91-.88-8.73m-8.46 16.39c.04 2.51-1.23 5.83 1.54 7.34 2.67 1.59 8.18 1.74 9.01-1.91-.63.35-1.89 1.03-2.52 1.37.01-.35.04-1.05.05-1.39 2.67.81 3.41-1.82 4.43-3.64-2 1.11-3.97 2.83-6.44 2.43-2.71-.08-4.58-2.2-6.07-4.2m6.54 14.52c1.87-.51 2.2-2.62 2.96-4.1-1.71 1.17-3.07 3.37-5.43 2.96-1.37-.7-2.09-2.14-3.11-3.21-.74 3.1 2.75 5.76 5.58 4.35z" fill="#fff"/><path d="m7.15 14.23c.72.53.72.53 0 0z" fill="#fff"/><path d="m17.82 46.63c3.29.09-1.39 3.01 0 0z" fill="#fff"/><path d="m20.09 47.9c3.3-.11-1.27 3.06 0 0z" fill="#fff"/><path d="m22.81 48.38c3.33.22-1.53 2.91 0 0z" fill="#fff"/></svg>

<?xml version="1.0" encoding="UTF-8" ?>
<!DOCTYPE svg PUBLIC "-//W3C//DTD SVG 1.1//EN" "http://www.w3.org/Graphics/SVG/1.1/DTD/svg11.dtd">
<svg width="40pt" height="60pt" viewBox="0 0 40 60" version="1.1" xmlns="http://www.w3.org/2000/svg">
<g id="#030303fe">
<path fill="#030303" opacity="1.00" d=" M 20.85 0.00 L 22.05 0.00 C 21.47 0.70 20.30 2.11 19.72 2.81 C 21.48 2.31 23.25 1.80 25.02 1.29 C 25.49 2.24 25.97 3.19 26.45 4.15 C 27.05 3.50 27.65 2.85 28.25 2.20 C 29.50 4.10 31.50 4.50 33.64 4.29 C 34.30 4.72 35.64 5.57 36.30 5.99 C 35.09 6.22 32.67 6.66 31.46 6.88 C 33.92 7.02 36.31 7.59 38.16 9.28 C 38.62 9.53 39.54 10.03 40.00 10.28 L 40.00 10.65 C 38.85 10.64 36.56 10.64 35.41 10.64 C 36.54 11.14 38.78 12.13 39.90 12.63 C 39.27 12.77 37.99 13.07 37.36 13.21 C 36.89 13.72 35.96 14.73 35.49 15.24 L 35.31 15.51 C 36.00 16.04 36.79 16.40 37.61 16.69 C 37.79 17.19 38.16 18.18 38.34 18.68 C 37.59 18.58 36.10 18.40 35.35 18.30 C 37.96 28.88 37.44 40.26 33.41 50.41 C 31.82 54.42 28.94 57.95 25.11 60.00 L 15.78 60.00 C 13.50 58.47 10.98 56.97 9.56 54.53 C 7.95 50.79 7.54 46.70 6.88 42.72 C 5.30 42.58 3.14 43.65 2.09 41.97 C 1.59 40.04 2.40 38.06 2.66 36.14 C 1.76 34.90 0.85 33.66 0.00 32.38 L 0.00 30.61 C 1.24 29.82 2.52 29.09 3.79 28.35 C 3.23 27.33 2.66 26.30 2.09 25.28 C 2.79 24.21 3.48 23.13 4.19 22.06 C 3.45 21.94 1.97 21.69 1.23 21.57 C 2.45 20.57 3.67 19.59 4.91 18.61 C 4.03 17.97 3.13 17.35 2.21 16.75 C 3.01 16.72 4.60 16.66 5.39 16.63 C 3.42 16.17 2.59 15.12 3.71 13.34 C 4.75 11.77 5.74 10.17 6.76 8.59 C 7.74 8.72 9.70 8.97 10.68 9.10 C 9.60 8.41 8.53 7.71 7.46 7.01 C 8.46 7.00 10.46 6.98 11.46 6.97 C 10.77 5.85 10.09 4.72 9.42 3.59 C 10.87 4.26 12.32 4.94 13.77 5.64 C 13.93 3.89 14.09 2.14 14.28 0.40 C 14.73 1.93 15.18 3.46 15.62 4.99 C 15.83 3.45 16.04 1.90 16.25 0.35 C 16.51 1.07 17.02 2.52 17.28 3.24 C 18.45 2.15 19.63 1.05 20.85 0.00 M 29.61 12.07 C 29.04 11.54 27.88 10.48 27.31 9.95 C 27.03 10.45 26.49 11.45 26.21 11.95 C 28.55 11.75 29.21 13.22 29.17 15.22 C 28.53 14.40 27.89 13.57 27.25 12.74 C 27.09 13.41 26.76 14.74 26.60 15.40 C 26.00 14.00 25.37 12.61 24.74 11.22 C 24.13 11.56 22.90 12.25 22.29 12.59 L 22.85 13.83 C 21.27 12.45 19.65 11.11 18.02 9.80 C 16.39 11.03 14.72 12.27 12.75 12.92 C 11.28 13.36 9.11 14.05 10.82 16.28 L 9.28 15.33 C 9.54 16.27 10.07 18.16 10.33 19.10 L 7.97 16.68 C 7.58 18.46 7.67 20.30 8.54 21.93 C 8.22 23.21 7.93 24.50 7.66 25.80 C 7.34 26.46 7.02 27.12 6.69 27.78 C 6.60 29.23 6.40 30.67 6.16 32.10 C 5.35 31.58 3.72 30.53 2.90 30.00 C -0.13 31.55 3.61 34.03 4.15 36.02 C 3.91 38.26 2.25 40.64 4.03 42.69 C 5.58 41.02 6.57 38.96 7.63 36.96 C 7.93 40.91 8.47 44.83 9.40 48.69 C 10.09 51.37 10.24 54.57 12.62 56.39 C 16.03 58.80 20.53 59.68 24.59 58.66 C 29.67 57.09 31.69 51.60 33.25 47.03 C 36.06 38.70 35.53 29.84 35.03 21.23 C 34.77 21.11 34.25 20.87 33.99 20.75 C 32.65 21.27 31.96 22.65 30.98 23.62 C 34.36 27.14 35.94 34.41 30.72 37.04 C 30.75 37.59 30.81 38.69 30.84 39.24 C 29.38 37.81 28.02 36.23 27.48 34.20 C 28.25 34.58 29.78 35.36 30.54 35.74 C 32.64 34.40 32.82 31.90 33.04 29.66 C 32.73 30.10 32.09 30.96 31.77 31.40 C 30.22 30.75 27.73 31.66 26.74 30.10 C 28.68 29.40 30.68 28.92 32.62 28.23 C 31.81 27.02 30.97 25.83 30.10 24.66 C 29.45 25.34 28.15 26.69 27.49 27.37 C 26.24 26.04 25.01 24.66 24.56 22.83 C 25.10 23.08 26.17 23.59 26.71 23.84 C 28.48 22.11 30.11 20.23 31.72 18.34 C 32.42 18.86 33.10 19.40 33.76 19.97 C 34.39 17.28 32.66 14.92 31.28 12.80 C 30.97 12.10 30.35 10.69 30.04 9.99 L 31.95 10.45 C 31.34 10.05 30.14 9.26 29.53 8.86 C 29.63 9.93 29.68 11.00 29.61 12.07 M 7.15 14.23 C 7.87 14.76 7.87 14.76 7.15 14.23 Z" />
<path fill="#030303" opacity="1.00" d=" M 14.35 17.82 C 16.57 19.74 18.58 21.89 20.51 24.10 C 21.14 23.91 22.42 23.53 23.05 23.35 C 22.10 24.61 21.07 25.81 19.97 26.95 C 19.04 26.14 18.06 25.41 17.02 24.76 C 14.57 25.55 14.24 28.54 13.55 30.64 C 15.74 30.16 17.88 29.49 20.01 28.80 C 19.56 29.94 19.14 31.09 18.73 32.25 C 18.43 31.95 17.83 31.33 17.53 31.03 C 16.11 31.54 14.69 32.03 13.26 32.52 C 13.58 33.61 14.15 34.51 14.97 35.21 C 16.83 36.72 18.63 34.19 20.22 33.56 C 19.49 35.56 18.29 37.32 16.81 38.84 C 15.55 36.52 12.09 35.87 12.02 32.85 C 11.99 29.34 13.17 25.70 15.95 23.41 C 14.52 22.60 13.13 21.71 11.75 20.80 L 12.91 20.36 C 13.27 19.72 13.99 18.46 14.35 17.82 Z" />
<path fill="#030303" opacity="1.00" d=" M 25.38 26.72 C 26.37 29.54 25.70 32.57 26.26 35.45 C 27.06 36.55 28.01 37.52 28.92 38.52 C 28.99 39.65 29.06 40.78 29.12 41.91 C 25.96 43.85 22.18 41.55 20.48 38.72 C 23.09 39.75 25.50 41.58 28.47 41.16 C 27.62 38.47 24.74 36.70 24.76 33.72 C 24.69 31.37 24.97 29.03 25.38 26.72 Z" />
<path fill="#030303" opacity="1.00" d=" M 16.92 43.11 C 18.41 45.11 20.28 47.23 22.99 47.31 C 25.46 47.71 27.43 45.99 29.43 44.88 C 28.41 46.70 27.67 49.33 25.00 48.52 C 24.99 48.86 24.96 49.56 24.95 49.91 C 25.58 49.57 26.84 48.89 27.47 48.54 C 26.64 52.19 21.13 52.04 18.46 50.45 C 15.69 48.94 16.96 45.62 16.92 43.11 M 17.82 46.63 C 16.43 49.64 21.11 46.72 17.82 46.63 M 20.09 47.90 C 18.82 50.96 23.39 47.79 20.09 47.90 M 22.81 48.38 C 21.28 51.29 26.14 48.60 22.81 48.38 Z" />
<path fill="#030303" opacity="1.00" d=" M 23.46 57.63 C 20.63 59.04 17.14 56.38 17.88 53.28 C 18.90 54.35 19.62 55.79 20.99 56.49 C 23.35 56.90 24.71 54.70 26.42 53.53 C 25.66 55.01 25.33 57.12 23.46 57.63 Z" />
</g>
<g id="#ffffffff">
<path fill="#ffffff" opacity="1.00" d=" M 29.61 12.07 C 29.68 11.00 29.63 9.93 29.53 8.86 C 30.14 9.26 31.34 10.05 31.95 10.45 L 30.04 9.99 C 30.35 10.69 30.97 12.10 31.28 12.80 C 32.66 14.92 34.39 17.28 33.76 19.97 C 33.10 19.40 32.42 18.86 31.72 18.34 C 30.11 20.23 28.48 22.11 26.71 23.84 C 26.17 23.59 25.10 23.08 24.56 22.83 C 25.01 24.66 26.24 26.04 27.49 27.37 C 28.15 26.69 29.45 25.34 30.10 24.66 C 30.97 25.83 31.81 27.02 32.62 28.23 C 30.68 28.92 28.68 29.40 26.74 30.10 C 27.73 31.66 30.22 30.75 31.77 31.40 C 32.09 30.96 32.73 30.10 33.04 29.66 C 32.82 31.90 32.64 34.40 30.54 35.74 C 29.78 35.36 28.25 34.58 27.48 34.20 C 28.02 36.23 29.38 37.81 30.84 39.24 C 30.81 38.69 30.75 37.59 30.72 37.04 C 35.94 34.41 34.36 27.14 30.98 23.62 C 31.96 22.65 32.65 21.27 33.99 20.75 C 34.25 20.87 34.77 21.11 35.03 21.23 C 35.53 29.84 36.06 38.70 33.25 47.03 C 31.69 51.60 29.67 57.09 24.59 58.66 C 20.53 59.68 16.03 58.80 12.62 56.39 C 10.24 54.57 10.09 51.37 9.40 48.69 C 8.47 44.83 7.93 40.91 7.63 36.96 C 6.57 38.96 5.58 41.02 4.03 42.69 C 2.25 40.64 3.91 38.26 4.15 36.02 C 3.61 34.03 -0.13 31.55 2.90 30.00 C 3.72 30.53 5.35 31.58 6.16 32.10 C 6.40 30.67 6.60 29.23 6.69 27.78 C 7.02 27.12 7.34 26.46 7.66 25.80 C 7.93 24.50 8.22 23.21 8.54 21.93 C 7.67 20.30 7.58 18.46 7.97 16.68 L 10.33 19.10 C 10.07 18.16 9.54 16.27 9.28 15.33 L 10.82 16.28 C 9.11 14.05 11.28 13.36 12.75 12.92 C 14.72 12.27 16.39 11.03 18.02 9.80 C 19.65 11.11 21.27 12.45 22.85 13.83 L 22.29 12.59 C 22.90 12.25 24.13 11.56 24.74 11.22 C 25.37 12.61 26.00 14.00 26.60 15.40 C 26.76 14.74 27.09 13.41 27.25 12.74 C 27.89 13.57 28.53 14.40 29.17 15.22 C 29.21 13.22 28.55 11.75 26.21 11.95 C 26.49 11.45 27.03 10.45 27.31 9.95 C 27.88 10.48 29.04 11.54 29.61 12.07 M 14.35 17.82 C 13.99 18.46 13.27 19.72 12.91 20.36 L 11.75 20.80 C 13.13 21.71 14.52 22.60 15.95 23.41 C 13.17 25.70 11.99 29.34 12.02 32.85 C 12.09 35.87 15.55 36.52 16.81 38.84 C 18.29 37.32 19.49 35.56 20.22 33.56 C 18.63 34.19 16.83 36.72 14.97 35.21 C 14.15 34.51 13.58 33.61 13.26 32.52 C 14.69 32.03 16.11 31.54 17.53 31.03 C 17.83 31.33 18.43 31.95 18.73 32.25 C 19.14 31.09 19.56 29.94 20.01 28.80 C 17.88 29.49 15.74 30.16 13.55 30.64 C 14.24 28.54 14.57 25.55 17.02 24.76 C 18.06 25.41 19.04 26.14 19.97 26.95 C 21.07 25.81 22.10 24.61 23.05 23.35 C 22.42 23.53 21.14 23.91 20.51 24.10 C 18.58 21.89 16.57 19.74 14.35 17.82 M 25.38 26.72 C 24.97 29.03 24.69 31.37 24.76 33.72 C 24.74 36.70 27.62 38.47 28.47 41.16 C 25.50 41.58 23.09 39.75 20.48 38.72 C 22.18 41.55 25.96 43.85 29.12 41.91 C 29.06 40.78 28.99 39.65 28.92 38.52 C 28.01 37.52 27.06 36.55 26.26 35.45 C 25.70 32.57 26.37 29.54 25.38 26.72 M 16.92 43.11 C 16.96 45.62 15.69 48.94 18.46 50.45 C 21.13 52.04 26.64 52.19 27.47 48.54 C 26.84 48.89 25.58 49.57 24.95 49.91 C 24.96 49.56 24.99 48.86 25.00 48.52 C 27.67 49.33 28.41 46.70 29.43 44.88 C 27.43 45.99 25.46 47.71 22.99 47.31 C 20.28 47.23 18.41 45.11 16.92 43.11 M 23.46 57.63 C 25.33 57.12 25.66 55.01 26.42 53.53 C 24.71 54.70 23.35 56.90 20.99 56.49 C 19.62 55.79 18.90 54.35 17.88 53.28 C 17.14 56.38 20.63 59.04 23.46 57.63 Z" />
<path fill="#ffffff" opacity="1.00" d=" M 7.15 14.23 C 7.87 14.76 7.87 14.76 7.15 14.23 Z" />
<path fill="#ffffff" opacity="1.00" d=" M 17.82 46.63 C 21.11 46.72 16.43 49.64 17.82 46.63 Z" />
<path fill="#ffffff" opacity="1.00" d=" M 20.09 47.90 C 23.39 47.79 18.82 50.96 20.09 47.90 Z" />
<path fill="#ffffff" opacity="1.00" d=" M 22.81 48.38 C 26.14 48.60 21.28 51.29 22.81 48.38 Z" />
</g>
</svg>
